aces_1.2/luts/D-Log_to_linear.spi1d
Version 1
From 0 1
Length 4096
Components 1
{
		 -0.01541908737
		 -0.01537855578
		 -0.01533802437
		 -0.01529749327
		 -0.01525696229
		 -0.01521643126
		 -0.01517590022
		 -0.01513536924
		 -0.01509483814
		 -0.01505430663
		 -0.01501377512
		 -0.01497324403
		 -0.01493271306
		 -0.01489218204
		 -0.01485165101
		 -0.01481112002
		 -0.01477058892
		 -0.0147300574
		 -0.01468952589
		 -0.01464899478
		 -0.0146084638
		 -0.01456793279
		 -0.01452740178
		 -0.01448687079
		 -0.01444633969
		 -0.01440580817
		 -0.01436527666
		 -0.01432474559
		 -0.01428421464
		 -0.0142436836
		 -0.01420315255
		 -0.01416262156
		 -0.01412209046
		 -0.01408155895
		 -0.01404102743
		 -0.01400049633
		 -0.01395996534
		 -0.01391943429
		 -0.01387890324
		 -0.01383837225
		 -0.01379784115
		 -0.01375730972
		 -0.01371677828
		 -0.01367624718
		 -0.01363571619
		 -0.01359518514
		 -0.01355465409
		 -0.0135141231
		 -0.013473592
		 -0.01343306049
		 -0.01339252898
		 -0.01335199787
		 -0.01331146688
		 -0.01327093594
		 -0.01323040479
		 -0.0131898729
		 -0.01314934099
		 -0.01310880983
		 -0.01306827889
		 -0.01302774784
		 -0.0129872168
		 -0.01294668581
		 -0.01290615471
		 -0.0128656232
		 -0.01282509168
		 -0.01278456057
		 -0.01274402958
		 -0.01270349854
		 -0.01266296749
		 -0.0126224365
		 -0.0125819054
		 -0.01254137389
		 -0.01250084237
		 -0.01246031126
		 -0.01241978028
		 -0.01237924923
		 -0.01233871818
		 -0.01229818714
		 -0.01225765609
		 -0.01221712508
		 -0.012176594
		 -0.01213606264
		 -0.01209553128
		 -0.01205500019
		 -0.01201446919
		 -0.01197393814
		 -0.01193340709
		 -0.0118928761
		 -0.011852345
		 -0.0118118135
		 -0.01177128198
		 -0.01173075087
		 -0.01169021988
		 -0.01164968883
		 -0.01160915779
		 -0.0115686268
		 -0.0115280957
		 -0.01148756419
		 -0.01144703267
		 -0.01140650156
		 -0.01136597057
		 -0.01132543953
		 -0.01128490848
		 -0.01124437749
		 -0.01120384639
		 -0.01116331489
		 -0.01112278337
		 -0.01108225225
		 -0.01104172127
		 -0.0110011902
		 -0.01096065917
		 -0.01092012833
		 -0.01087959739
		 -0.01083906591
		 -0.01079853437
		 -0.01075800326
		 -0.01071747227
		 -0.01067694122
		 -0.01063641018
		 -0.01059587918
		 -0.01055534809
		 -0.01051481659
		 -0.01047428506
		 -0.01043375395
		 -0.01039322296
		 -0.01035269192
		 -0.01031216087
		 -0.01027162988
		 -0.01023109878
		 -0.01019056728
		 -0.01015003576
		 -0.01010950464
		 -0.01006897366
		 -0.01002844261
		 -0.009987911562
		 -0.009947380572
		 -0.009906849476
		 -0.009866317975
		 -0.009825786451
		 -0.009785255336
		 -0.009744724349
		 -0.009704193303
		 -0.009663662256
		 -0.009623131265
		 -0.00958260017
		 -0.00954206867
		 -0.009501537146
		 -0.00946100603
		 -0.009420475043
		 -0.009379943996
		 -0.009339412949
		 -0.009298881902
		 -0.009258350855
		 -0.009217819865
		 -0.00917728877
		 -0.009136757271
		 -0.009096225746
		 -0.009055694685
		 -0.009015163651
		 -0.008974632116
		 -0.008934100622
		 -0.008893569804
		 -0.008853039136
		 -0.008812508191
		 -0.008771977057
		 -0.008731445559
		 -0.008690914033
		 -0.008650382916
		 -0.008609851929
		 -0.008569320883
		 -0.008528789836
		 -0.008488258845
		 -0.008447727751
		 -0.008407196254
		 -0.008366664727
		 -0.008326133609
		 -0.008285602623
		 -0.008245071576
		 -0.008204540529
		 -0.008164009538
		 -0.008123478445
		 -0.008082946949
		 -0.008042415421
		 -0.008001884303
		 -0.007961353316
		 -0.007920822298
		 -0.007880291228
		 -0.007839759956
		 -0.007799228669
		 -0.007758697614
		 -0.007718166575
		 -0.007677635304
		 -0.007637104016
		 -0.007596572961
		 -0.007556041922
		 -0.007515510651
		 -0.007474979363
		 -0.007434448307
		 -0.007393917268
		 -0.007353385998
		 -0.00731285471
		 -0.007272323626
		 -0.00723179261
		 -0.007191261591
		 -0.007150730522
		 -0.007110199251
		 -0.007069667963
		 -0.007029136907
		 -0.006988605868
		 -0.006948074598
		 -0.00690754331
		 -0.006867012254
		 -0.006826481215
		 -0.006785949945
		 -0.006745418657
		 -0.0067048876
		 -0.006664356562
		 -0.006623825292
		 -0.006583294004
		 -0.006542762947
		 -0.006502231909
		 -0.006461700658
		 -0.006421169355
		 -0.00638063812
		 -0.006340106942
		 -0.006299575897
		 -0.006259044849
		 -0.00621851358
		 -0.006177982291
		 -0.006137451234
		 -0.006096920196
		 -0.006056388927
		 -0.006015857638
		 -0.00597532658
		 -0.005934795543
		 -0.005894264274
		 -0.005853732985
		 -0.005813201927
		 -0.00577267089
		 -0.005732139621
		 -0.005691608332
		 -0.005651077274
		 -0.005610546237
		 -0.005570014968
		 -0.005529483678
		 -0.005488952621
		 -0.005448421583
		 -0.005407890315
		 -0.005367359025
		 -0.005326827967
		 -0.00528629693
		 -0.005245765662
		 -0.005205234372
		 -0.005164703287
		 -0.00512417227
		 -0.005083641251
		 -0.005043110184
		 -0.005002578915
		 -0.004962047625
		 -0.004921516567
		 -0.00488098553
		 -0.004840454263
		 -0.004799922972
		 -0.004759391914
		 -0.004718860877
		 -0.00467832961
		 -0.004637798319
		 -0.00459726726
		 -0.004556736224
		 -0.004516204957
		 -0.004475673666
		 -0.004435142607
		 -0.004394611571
		 -0.004354080304
		 -0.004313549013
		 -0.004273017954
		 -0.004232486918
		 -0.004191955651
		 -0.00415142436
		 -0.004110893301
		 -0.004070362265
		 -0.004029831011
		 -0.003989299711
		 -0.003948768527
		 -0.003908237379
		 -0.003867706216
		 -0.003827175053
		 -0.00378664389
		 -0.003746112726
		 -0.00370558155
		 -0.003665050396
		 -0.003624519343
		 -0.003583988302
		 -0.003543457158
		 -0.00350292598
		 -0.003462394816
		 -0.003421863653
		 -0.00338133249
		 -0.003340801326
		 -0.003300270163
		 -0.003259739
		 -0.003219207837
		 -0.003178676673
		 -0.00313814551
		 -0.003097614347
		 -0.003057083184
		 -0.00301655202
		 -0.002976020857
		 -0.002935489694
		 -0.002894958531
		 -0.002854427367
		 -0.002813896204
		 -0.002773365041
		 -0.002732833877
		 -0.002692302714
		 -0.002651771551
		 -0.002611240387
		 -0.002570709291
		 -0.002530178082
		 -0.002489646301
		 -0.002449114573
		 -0.002408583887
		 -0.002368053452
		 -0.0023275224
		 -0.002286991155
		 -0.002246459991
		 -0.002205928827
		 -0.002165397664
		 -0.002124866501
		 -0.002084335337
		 -0.002043804174
		 -0.002003273011
		 -0.001962741847
		 -0.001922210684
		 -0.001881679521
		 -0.001841148358
		 -0.001800617194
		 -0.001760086031
		 -0.001719554868
		 -0.001679023705
		 -0.001638492541
		 -0.001597961378
		 -0.001557430215
		 -0.001516899052
		 -0.001476367888
		 -0.001435836725
		 -0.001395305562
		 -0.001354774398
		 -0.001314243235
		 -0.001273712072
		 -0.001233180908
		 -0.001192649745
		 -0.001152118582
		 -0.001111587419
		 -0.001071056255
		 -0.001030525092
		 -0.0009899939288
		 -0.0009494627657
		 -0.0009089316022
		 -0.0008684004391
		 -0.0008278692757
		 -0.0007873381093
		 -0.0007468069479
		 -0.0007062758119
		 -0.0006657446793
		 -0.0006252135216
		 -0.0005846823543
		 -0.0005441511911
		 -0.0005036200277
		 -0.0004630888645
		 -0.0004225577011
		 -0.000382026538
		 -0.0003414953746
		 -0.0003009642106
		 -0.0002604330477
		 -0.0002199018913
		 -0.0001793707356
		 -0.000138839577
		 -9.830841668e-05
		 -5.777725515e-05
		 -1.724609377e-05
		 2.328506859e-05
		 6.381622946e-05
		 0.0001043473858
		 0.0001448785415
		 0.0001854097041
		 0.000225940868
		 0.0002664720244
		 0.0003070031801
		 0.0003475343418
		 0.0003880655062
		 0.0004285966694
		 0.0004691278328
		 0.0005096589959
		 0.0005501901594
		 0.0005907213225
		 0.0006312524859
		 0.000671783649
		 0.0007123148125
		 0.0007528459788
		 0.0007933771403
		 0.0008339082766
		 0.000874439409
		 0.0009149705633
		 0.0009555017326
		 0.0009960329226
		 0.001036564117
		 0.001077095292
		 0.001117626448
		 0.001158157557
		 0.001198688659
		 0.001239219811
		 0.001279750982
		 0.001320282145
		 0.001360813309
		 0.001401344472
		 0.001441875635
		 0.001482406798
		 0.001522937962
		 0.001563469125
		 0.001604000288
		 0.001644531451
		 0.001685062615
		 0.001725593778
		 0.001766124941
		 0.001806656104
		 0.001847187268
		 0.001887718431
		 0.001928249594
		 0.001968780758
		 0.002009311921
		 0.002049843084
		 0.002090374247
		 0.002130905411
		 0.002171436574
		 0.002211967737
		 0.002252498901
		 0.002293030064
		 0.002333561227
		 0.00237409239
		 0.002414623554
		 0.002455154717
		 0.00249568588
		 0.002536217043
		 0.002576748207
		 0.002617279374
		 0.002657810535
		 0.002698341665
		 0.00273887279
		 0.002779403946
		 0.002819935114
		 0.002860466277
		 0.002900997441
		 0.002941528604
		 0.002982059767
		 0.00302259093
		 0.003063122094
		 0.003103653257
		 0.00314418442
		 0.003184715583
		 0.003225246747
		 0.00326577791
		 0.003306309073
		 0.003346840237
		 0.0033873714
		 0.003427902563
		 0.003468433726
		 0.00350896489
		 0.003549496053
		 0.003590027216
		 0.00363055838
		 0.003671089543
		 0.003711620706
		 0.003752151869
		 0.003792683033
		 0.003833214196
		 0.003873745359
		 0.003914276535
		 0.003954807692
		 0.003995338737
		 0.004035869781
		 0.004076401039
		 0.004116932337
		 0.004157463406
		 0.004197994435
		 0.004238525692
		 0.00427905699
		 0.004319588059
		 0.004360119088
		 0.004400650345
		 0.004441181643
		 0.004481712713
		 0.004522243741
		 0.004562774998
		 0.004603306296
		 0.004643837366
		 0.004684368394
		 0.00472489965
		 0.004765430949
		 0.004805962019
		 0.004846493048
		 0.004887024303
		 0.004927555602
		 0.004968086673
		 0.005008617701
		 0.005049148956
		 0.005089680255
		 0.005130211326
		 0.005170742354
		 0.005211273609
		 0.005251804908
		 0.005292335979
		 0.005332867007
		 0.005373398262
		 0.005413929561
		 0.005454460632
		 0.00549499166
		 0.005535522915
		 0.005576054214
		 0.005616585286
		 0.005657116313
		 0.005697647568
		 0.005738178867
		 0.005778709939
		 0.005819240967
		 0.005859772221
		 0.00590030352
		 0.005940834617
		 0.005981365633
		 0.006021896654
		 0.006062427713
		 0.006102958968
		 0.006143490267
		 0.006184021339
		 0.006224552367
		 0.006265083621
		 0.00630561492
		 0.006346145992
		 0.00638667702
		 0.006427208274
		 0.006467739573
		 0.006508270646
		 0.006548801673
		 0.006589332926
		 0.006629864226
		 0.006670395299
		 0.006710926326
		 0.006751457579
		 0.00679198888
		 0.006832519952
		 0.006873050979
		 0.006913582232
		 0.006954113532
		 0.006994644606
		 0.007035175632
		 0.007075706885
		 0.007116238186
		 0.007156769259
		 0.007197300286
		 0.007237831538
		 0.007278362839
		 0.007318893912
		 0.007359424939
		 0.007399956191
		 0.007440487492
		 0.007481018565
		 0.007521549592
		 0.007562080844
		 0.007602612145
		 0.007643143219
		 0.007683674245
		 0.007724188428
		 0.007764727021
		 0.007805330009
		 0.007846067819
		 0.007887145282
		 0.007928432627
		 0.007969768316
		 0.008011193953
		 0.008052710694
		 0.008094318006
		 0.00813601396
		 0.00817780033
		 0.008219679965
		 0.008261651806
		 0.008303714716
		 0.008345869932
		 0.008388119625
		 0.008430462917
		 0.008472899406
		 0.008515428563
		 0.008558048656
		 0.008600760975
		 0.008643566794
		 0.008686466938
		 0.008729464299
		 0.008772557184
		 0.008815743589
		 0.008859023922
		 0.008902397639
		 0.008945865615
		 0.008989429089
		 0.009033088468
		 0.009076845461
		 0.009120699309
		 0.009164649612
		 0.009208695848
		 0.009252836134
		 0.009297072097
		 0.00934140638
		 0.009385837995
		 0.009430365611
		 0.0094749909
		 0.009519717103
		 0.009564542772
		 0.009609466856
		 0.009654488896
		 0.009699606694
		 0.009744822153
		 0.009790138089
		 0.009835554091
		 0.009881070809
		 0.009926688069
		 0.009972406296
		 0.01001822446
		 0.0100641398
		 0.01011015454
		 0.01015627212
		 0.01020249167
		 0.01024881311
		 0.01029523653
		 0.01034176242
		 0.01038839015
		 0.01043511819
		 0.01048194774
		 0.01052888064
		 0.01057591642
		 0.01062305424
		 0.01067029603
		 0.01071764711
		 0.01076510309
		 0.0108126558
		 0.01086030994
		 0.01090807149
		 0.01095593914
		 0.0110039134
		 0.01105199382
		 0.01110018005
		 0.01114847147
		 0.01119686588
		 0.01124536513
		 0.01129397202
		 0.01134268625
		 0.01139150884
		 0.01144043924
		 0.01148947693
		 0.01153862163
		 0.01158787207
		 0.01163722936
		 0.01168669482
		 0.01173626921
		 0.0117859558
		 0.01183575218
		 0.01188565369
		 0.01193566348
		 0.01198578683
		 0.01203602107
		 0.01208636243
		 0.01213681283
		 0.01218737418
		 0.01223804689
		 0.0122888333
		 0.01233973223
		 0.01239074236
		 0.01244186382
		 0.01249309598
		 0.01254443938
		 0.01259589426
		 0.01264746201
		 0.01269914652
		 0.01275094594
		 0.01280285835
		 0.01285488381
		 0.01290702101
		 0.01295927116
		 0.01301163583
		 0.01306411569
		 0.01311671356
		 0.01316942814
		 0.01322225827
		 0.01327520373
		 0.01332826296
		 0.01338143722
		 0.01343472847
		 0.01348813653
		 0.01354166163
		 0.01359530458
		 0.01364906773
		 0.01370294993
		 0.0137569499
		 0.01381106766
		 0.01386530215
		 0.0139196544
		 0.01397412577
		 0.01402871698
		 0.01408343088
		 0.01413826611
		 0.01419322124
		 0.01424829612
		 0.01430348912
		 0.01435880167
		 0.01441423589
		 0.01446979222
		 0.01452547328
		 0.01458127776
		 0.01463720415
		 0.0146932525
		 0.01474942178
		 0.01480571301
		 0.01486212791
		 0.01491866636
		 0.01497532851
		 0.01503211536
		 0.01508902983
		 0.01514607047
		 0.01520323546
		 0.01526052504
		 0.01531793841
		 0.0153754765
		 0.01543314065
		 0.01549093166
		 0.01554885272
		 0.01560690223
		 0.01566507812
		 0.0157233807
		 0.01578180911
		 0.0158403644
		 0.01589904831
		 0.01595786118
		 0.01601680484
		 0.01607587886
		 0.01613508356
		 0.01619441813
		 0.01625388031
		 0.01631347138
		 0.01637319306
		 0.01643304533
		 0.01649302853
		 0.01655314368
		 0.01661339395
		 0.01667377786
		 0.01673429366
		 0.01679494139
		 0.01685571968
		 0.01691662977
		 0.01697767338
		 0.01703885141
		 0.01710016765
		 0.01716162011
		 0.0172232059
		 0.01728492569
		 0.01734677925
		 0.01740876719
		 0.01747089029
		 0.01753314963
		 0.01759554877
		 0.01765808634
		 0.01772076112
		 0.01778357285
		 0.01784651959
		 0.01790960287
		 0.01797282557
		 0.01803618701
		 0.0180996866
		 0.01816332555
		 0.01822710689
		 0.01829102954
		 0.01835509297
		 0.0184192964
		 0.01848363675
		 0.01854811616
		 0.01861273803
		 0.01867750246
		 0.01874241212
		 0.01880746568
		 0.01887266136
		 0.01893799922
		 0.01900347789
		 0.01906909857
		 0.01913486312
		 0.01920077217
		 0.01926682872
		 0.01933303172
		 0.01939938061
		 0.01946587463
		 0.0195325107
		 0.01959929093
		 0.01966621918
		 0.01973329458
		 0.0198005166
		 0.01986788623
		 0.01993540603
		 0.02000307506
		 0.02007089252
		 0.02013885822
		 0.02020697086
		 0.02027523146
		 0.0203436413
		 0.02041220131
		 0.02048091517
		 0.02054978132
		 0.02061879799
		 0.02068796522
		 0.02075728154
		 0.02082674834
		 0.02089636806
		 0.02096614102
		 0.02103606981
		 0.02110615333
		 0.02117639027
		 0.02124678057
		 0.02131732285
		 0.02138801829
		 0.02145886877
		 0.0215298749
		 0.02160104005
		 0.02167236242
		 0.02174383836
		 0.02181547006
		 0.02188726195
		 0.021959212
		 0.02203131673
		 0.02210357795
		 0.02217599822
		 0.02224857767
		 0.02232131807
		 0.02239421917
		 0.02246728206
		 0.02254050529
		 0.02261388487
		 0.02268742287
		 0.02276112201
		 0.02283498306
		 0.02290901017
		 0.0229832017
		 0.02305755594
		 0.02313207274
		 0.02320675018
		 0.02328158968
		 0.02335659383
		 0.02343176273
		 0.02350709816
		 0.02358259989
		 0.02365826889
		 0.02373410394
		 0.02381010159
		 0.02388626361
		 0.02396259269
		 0.02403908874
		 0.02411575246
		 0.024192585
		 0.02426959067
		 0.02434676766
		 0.02442411411
		 0.02450162925
		 0.02457930859
		 0.02465715529
		 0.02473517544
		 0.02481336822
		 0.0248917353
		 0.02497027563
		 0.02504898725
		 0.02512787057
		 0.02520692546
		 0.02528615229
		 0.02536555097
		 0.0254451235
		 0.02552487655
		 0.02560480702
		 0.02568490959
		 0.02576518606
		 0.02584563846
		 0.02592626636
		 0.02600706904
		 0.02608804793
		 0.02616920686
		 0.02625054515
		 0.02633206313
		 0.02641376087
		 0.02649563936
		 0.02657769744
		 0.02665993154
		 0.02674234356
		 0.02682493609
		 0.02690771023
		 0.0269906721
		 0.02707381818
		 0.02715714087
		 0.02724064344
		 0.02732433086
		 0.02740820242
		 0.02749225863
		 0.02757650002
		 0.02766092945
		 0.02774554455
		 0.02783033888
		 0.0279153157
		 0.02800048093
		 0.02808583346
		 0.02817137309
		 0.02825710092
		 0.02834302082
		 0.02842913116
		 0.0285154297
		 0.0286019164
		 0.02868858919
		 0.02877544976
		 0.02886250148
		 0.02894974473
		 0.02903718313
		 0.02912481542
		 0.02921264066
		 0.02930065794
		 0.0293888629
		 0.02947725819
		 0.0295658487
		 0.02965463449
		 0.02974361923
		 0.02983280151
		 0.02992217978
		 0.03001175344
		 0.0301015188
		 0.03019147803
		 0.03028163547
		 0.03037199052
		 0.03046254331
		 0.03055329517
		 0.03064425112
		 0.03073540903
		 0.03082676543
		 0.03091832087
		 0.03101007443
		 0.03110202723
		 0.03119418158
		 0.0312865382
		 0.03137910108
		 0.03147186921
		 0.03156484287
		 0.03165802046
		 0.03175139604
		 0.03184497265
		 0.03193875568
		 0.03203274524
		 0.03212694566
		 0.0322213551
		 0.03231597069
		 0.03241079269
		 0.03250581969
		 0.03260105288
		 0.03269649443
		 0.03279214539
		 0.03288801167
		 0.03298409023
		 0.03308037367
		 0.03317686588
		 0.03327357611
		 0.03337050039
		 0.03346763043
		 0.03356496998
		 0.03366252581
		 0.03376029715
		 0.03385828601
		 0.03395649164
		 0.03405491351
		 0.03415355083
		 0.0342523998
		 0.03435146269
		 0.03445074402
		 0.03455024378
		 0.034649965
		 0.03474990674
		 0.03485006844
		 0.03495044932
		 0.03505104559
		 0.03515185948
		 0.03525289537
		 0.03535415356
		 0.03545563876
		 0.03555734853
		 0.03565927679
		 0.0357614265
		 0.03586380442
		 0.03596640805
		 0.0360692326
		 0.03617228017
		 0.03627555416
		 0.03637905508
		 0.03648278699
		 0.03658674876
		 0.03669094013
		 0.03679535969
		 0.03690000114
		 0.03700486806
		 0.03710996822
		 0.03721530067
		 0.03732086755
		 0.03742666782
		 0.03753269959
		 0.03763896294
		 0.03774545643
		 0.03785218121
		 0.03795913949
		 0.03806633224
		 0.03817376475
		 0.03828143538
		 0.03838934233
		 0.03849748536
		 0.03860586205
		 0.03871447371
		 0.03882332291
		 0.03893241002
		 0.0390417373
		 0.03915130542
		 0.0392611188
		 0.03937117573
		 0.03948147358
		 0.039592012
		 0.03970278675
		 0.03981380091
		 0.03992506243
		 0.04003657005
		 0.04014832473
		 0.04026032598
		 0.04037257308
		 0.04048506561
		 0.04059780093
		 0.04071078067
		 0.04082400825
		 0.04093748414
		 0.04105121207
		 0.0411651916
		 0.04127942474
		 0.04139390916
		 0.04150863634
		 0.04162361037
		 0.04173884083
		 0.04185432537
		 0.04197006077
		 0.04208604923
		 0.04220229703
		 0.04231880269
		 0.04243556586
		 0.04255258522
		 0.04266985413
		 0.04278737658
		 0.04290516377
		 0.04302321196
		 0.04314151418
		 0.04326007278
		 0.043378891
		 0.04349796989
		 0.04361731667
		 0.0437369278
		 0.0438567931
		 0.04397691769
		 0.04409731554
		 0.04421798136
		 0.04433890293
		 0.04446008546
		 0.04458154163
		 0.04470326695
		 0.04482525111
		 0.04494749919
		 0.04507002516
		 0.04519282378
		 0.04531588268
		 0.04543920728
		 0.04556281147
		 0.04568669032
		 0.04581083262
		 0.04593524329
		 0.04605993503
		 0.04618490342
		 0.0463101389
		 0.04643564504
		 0.04656142869
		 0.0466874894
		 0.04681383082
		 0.04694045093
		 0.04706734312
		 0.04719451097
		 0.04732196502
		 0.04744970126
		 0.04757770956
		 0.04770599461
		 0.04783456892
		 0.04796342841
		 0.04809256407
		 0.04822198008
		 0.04835168824
		 0.0484816841
		 0.04861195632
		 0.04874251
		 0.04887335905
		 0.04900449867
		 0.0491359176
		 0.04926762064
		 0.04939962054
		 0.04953191297
		 0.0496644882
		 0.04979734998
		 0.04993050622
		 0.05006395631
		 0.05019770416
		 0.05033174723
		 0.05046607658
		 0.05060069659
		 0.05073561995
		 0.05087084239
		 0.05100635352
		 0.05114215819
		 0.05127827046
		 0.05141468532
		 0.05155139032
		 0.05168839065
		 0.05182570011
		 0.05196331428
		 0.05210122291
		 0.05223943051
		 0.05237795013
		 0.052516777
		 0.05265589852
		 0.0527953201
		 0.05293505677
		 0.05307510366
		 0.05321544915
		 0.05335609845
		 0.053497067
		 0.05363834917
		 0.05377993055
		 0.05392181632
		 0.05406401796
		 0.05420653378
		 0.0543493649
		 0.05449251033
		 0.05463596589
		 0.05477973401
		 0.05492382259
		 0.05506822928
		 0.05521294898
		 0.05535798378
		 0.05550333906
		 0.05564901369
		 0.05579500553
		 0.05594131638
		 0.05608795337
		 0.0562349138
		 0.05638218964
		 0.05652978489
		 0.05667771213
		 0.05682596753
		 0.0569745423
		 0.05712343983
		 0.05727266949
		 0.05742222827
		 0.0575721085
		 0.05772231337
		 0.05787285115
		 0.0580237207
		 0.05817492323
		 0.05832645778
		 0.05847831956
		 0.05863051197
		 0.05878304797
		 0.05893592301
		 0.05908912474
		 0.0592426578
		 0.05939653491
		 0.05955075234
		 0.05970530065
		 0.05986018421
		 0.0600154173
		 0.06017099496
		 0.060326903
		 0.0604831475
		 0.06063974746
		 0.06079669648
		 0.06095397729
		 0.06111159618
		 0.06126957004
		 0.06142789471
		 0.06158656334
		 0.06174557722
		 0.06190493577
		 0.0620646419
		 0.06222471007
		 0.06238513466
		 0.06254589805
		 0.06270700725
		 0.06286848315
		 0.06303031962
		 0.0631925018
		 0.0633550348
		 0.06351793327
		 0.0636811921
		 0.06384479546
		 0.06400875044
		 0.06417308026
		 0.06433777799
		 0.06450282663
		 0.06466823157
		 0.06483400634
		 0.0650001479
		 0.06516665078
		 0.06533351715
		 0.06550075456
		 0.06566836003
		 0.06583632205
		 0.06600464691
		 0.06617335866
		 0.06634244896
		 0.06651189425
		 0.06668170137
		 0.06685188497
		 0.06702244365
		 0.06719338168
		 0.06736469741
		 0.06753638563
		 0.06770844849
		 0.06788089297
		 0.06805371707
		 0.06822691524
		 0.0684004901
		 0.0685744504
		 0.06874879431
		 0.06892351859
		 0.06909862501
		 0.06927412107
		 0.06945000385
		 0.06962626303
		 0.06980290281
		 0.06997993659
		 0.0701573614
		 0.07033517117
		 0.07051336895
		 0.07069196677
		 0.0708709606
		 0.07105033876
		 0.07123010435
		 0.07141026221
		 0.07159081419
		 0.07177177493
		 0.07195313869
		 0.07213488482
		 0.07231702157
		 0.07249957812
		 0.07268254489
		 0.07286589243
		 0.07304963027
		 0.07323378585
		 0.07341835289
		 0.07360331919
		 0.07378868776
		 0.07397446555
		 0.07416065111
		 0.07434724009
		 0.07453423605
		 0.07472165662
		 0.07490949491
		 0.07509772569
		 0.07528635818
		 0.07547542295
		 0.07566491169
		 0.0758548028
		 0.07604510195
		 0.07623582123
		 0.07642696052
		 0.07661852918
		 0.07681052367
		 0.07700293238
		 0.07719575819
		 0.07738900762
		 0.07758267942
		 0.07777676975
		 0.07797128237
		 0.07816623576
		 0.07836162428
		 0.07855743119
		 0.07875366098
		 0.07895032438
		 0.07914742025
		 0.07934494973
		 0.07954291338
		 0.07974131677
		 0.07994015704
		 0.08013942067
		 0.08033911366
		 0.08053925942
		 0.08073985169
		 0.08094087414
		 0.08114233028
		 0.08134422468
		 0.08154655991
		 0.08174935512
		 0.08195260386
		 0.08215628344
		 0.08236040147
		 0.08256498493
		 0.08277002562
		 0.0829754958
		 0.08318140454
		 0.08338778179
		 0.0835946209
		 0.08380190735
		 0.0840096443
		 0.08421783884
		 0.08442648959
		 0.08463559196
		 0.08484514966
		 0.08505518218
		 0.08526568322
		 0.08547663005
		 0.08568803011
		 0.08589991016
		 0.08611226257
		 0.08632506225
		 0.08653831693
		 0.08675205118
		 0.0869662608
		 0.08718094094
		 0.0873960918
		 0.08761171002
		 0.08782779801
		 0.08804436752
		 0.08826141536
		 0.08847893043
		 0.08869691728
		 0.08891539508
		 0.08913435852
		 0.08935378935
		 0.08957369381
		 0.08979409585
		 0.09001498917
		 0.0902363535
		 0.09045819495
		 0.09068053517
		 0.09090336859
		 0.09112667687
		 0.09135046618
		 0.09157475994
		 0.09179955271
		 0.09202482874
		 0.09225059306
		 0.09247686477
		 0.09270363907
		 0.09293090174
		 0.09315865578
		 0.09338690639
		 0.09361565508
		 0.09384491541
		 0.09407468402
		 0.09430495026
		 0.09453571769
		 0.09476700049
