aces_1.2/luts/V4_LogC_800_to_linear.spi1d
Version 1
From 0 1
Length 65536
Components 1
{
		 -0.0180569943
		 -0.0180552537
		 -0.01805351309
		 -0.01805177247
		 -0.01805003184
		 -0.01804829119
		 -0.01804655053
		 -0.01804480983
		 -0.01804306911
		 -0.01804132835
		 -0.01803958756
		 -0.01803784672
		 -0.01803610584
		 -0.01803436491
		 -0.01803262392
		 -0.01803088288
		 -0.01802914177
		 -0.01802740059
		 -0.01802565934
		 -0.01802391802
		 -0.01802217661
		 -0.01802043513
		 -0.01801869355
		 -0.01801695188
		 -0.01801521012
		 -0.01801346825
		 -0.01801172628
		 -0.0180099842
		 -0.018008242
		 -0.01800649969
		 -0.01800475726
		 -0.0180030147
		 -0.018001272
		 -0.01799952918
		 -0.01799778621
		 -0.01799604311
		 -0.01799429985
		 -0.01799255645
		 -0.01799081289
		 -0.01798906916
		 -0.01798732528
		 -0.01798558122
		 -0.017983837
		 -0.0179820926
		 -0.01798034801
		 -0.01797860324
		 -0.01797685829
		 -0.01797511313
		 -0.01797336778
		 -0.01797162223
		 -0.01796987648
		 -0.01796813051
		 -0.01796638433
		 -0.01796463793
		 -0.0179628913
		 -0.01796114445
		 -0.01795939737
		 -0.01795765005
		 -0.01795590249
		 -0.01795415469
		 -0.01795240664
		 -0.01795065834
		 -0.01794890978
		 -0.01794716096
		 -0.01794541188
		 -0.01794366253
		 -0.0179419129
		 -0.01794016299
		 -0.01793841281
		 -0.01793666234
		 -0.01793491157
		 -0.01793316052
		 -0.01793140916
		 -0.0179296575
		 -0.01792790554
		 -0.01792615326
		 -0.01792440067
		 -0.01792264776
		 -0.01792089452
		 -0.01791914096
		 -0.01791738706
		 -0.01791563283
		 -0.01791387825
		 -0.01791212333
		 -0.01791036807
		 -0.01790861245
		 -0.01790685647
		 -0.01790510013
		 -0.01790334342
		 -0.01790158635
		 -0.0178998289
		 -0.01789807107
		 -0.01789631286
		 -0.01789455426
		 -0.01789279527
		 -0.01789103588
		 -0.0178892761
		 -0.01788751591
		 -0.01788575531
		 -0.0178839943
		 -0.01788223288
		 -0.01788047103
		 -0.01787870876
		 -0.01787694607
		 -0.01787518308
		 -0.01787341981
		 -0.01787165625
		 -0.01786989241
		 -0.01786812829
		 -0.01786636388
		 -0.01786459919
		 -0.01786283422
		 -0.01786106896
		 -0.01785930342
		 -0.01785753759
		 -0.01785577148
		 -0.01785400509
		 -0.01785223841
		 -0.01785047144
		 -0.0178487042
		 -0.01784693666
		 -0.01784516884
		 -0.01784340074
		 -0.01784163235
		 -0.01783986367
		 -0.01783809471
		 -0.01783632546
		 -0.01783455593
		 -0.01783278611
		 -0.01783101601
		 -0.01782924561
		 -0.01782747494
		 -0.01782570397
		 -0.01782393272
		 -0.01782216118
		 -0.01782038935
		 -0.01781861724
		 -0.01781684484
		 -0.01781507215
		 -0.01781329917
		 -0.01781152591
		 -0.01780975235
		 -0.01780797851
		 -0.01780620438
		 -0.01780442996
		 -0.01780265526
		 -0.01780088026
		 -0.01779910498
		 -0.01779732941
		 -0.01779555354
		 -0.01779377739
		 -0.01779200095
		 -0.01779022422
		 -0.0177884472
		 -0.01778666989
		 -0.01778489229
		 -0.0177831144
		 -0.01778133621
		 -0.01777955774
		 -0.01777777898
		 -0.01777599993
		 -0.01777422058
		 -0.01777244095
		 -0.01777066102
		 -0.0177688808
		 -0.01776710029
		 -0.01776531949
		 -0.0177635384
		 -0.01776175701
		 -0.01775997533
		 -0.01775819337
		 -0.0177564111
		 -0.01775462855
		 -0.0177528457
		 -0.01775106256
		 -0.01774927913
		 -0.0177474954
		 -0.01774571138
		 -0.01774392707
		 -0.01774214246
		 -0.01774035756
		 -0.01773857237
		 -0.01773678688
		 -0.0177350011
		 -0.01773321502
		 -0.01773142865
		 -0.01772964199
		 -0.01772785503
		 -0.01772606777
		 -0.01772428022
		 -0.01772249238
		 -0.01772070423
		 -0.0177189158
		 -0.01771712707
		 -0.01771533804
		 -0.01771354872
		 -0.0177117591
		 -0.01770996918
		 -0.01770817897
		 -0.01770638846
		 -0.01770459766
		 -0.01770280656
		 -0.01770101516
		 -0.01769922346
		 -0.01769743147
		 -0.01769563918
		 -0.01769384659
		 -0.01769205372
		 -0.01769026056
		 -0.01768846712
		 -0.01768667338
		 -0.01768487936
		 -0.01768308505
		 -0.01768129045
		 -0.01767949556
		 -0.01767770038
		 -0.01767590492
		 -0.01767410916
		 -0.01767231312
		 -0.01767051679
		 -0.01766872016
		 -0.01766692325
		 -0.01766512605
		 -0.01766332856
		 -0.01766153077
		 -0.0176597327
		 -0.01765793434
		 -0.01765613568
		 -0.01765433674
		 -0.0176525375
		 -0.01765073798
		 -0.01764893816
		 -0.01764713805
		 -0.01764533765
		 -0.01764353696
		 -0.01764173598
		 -0.0176399347
		 -0.01763813314
		 -0.01763633128
		 -0.01763452912
		 -0.01763272668
		 -0.01763092394
		 -0.01762912091
		 -0.01762731759
		 -0.01762551397
		 -0.01762371007
		 -0.01762190586
		 -0.01762010137
		 -0.01761829658
		 -0.01761649149
		 -0.01761468612
		 -0.01761288044
		 -0.01761107448
		 -0.01760926822
		 -0.01760746166
		 -0.01760565481
		 -0.01760384767
		 -0.01760204023
		 -0.01760023249
		 -0.01759842446
		 -0.01759661614
		 -0.01759480751
		 -0.0175929986
		 -0.01759118938
		 -0.01758937987
		 -0.01758757007
		 -0.01758575997
		 -0.01758394957
		 -0.01758213887
		 -0.01758032788
		 -0.01757851659
		 -0.017576705
		 -0.01757489312
		 -0.01757308094
		 -0.01757126846
		 -0.01756945568
		 -0.01756764261
		 -0.01756582924
		 -0.01756401557
		 -0.0175622016
		 -0.01756038733
		 -0.01755857276
		 -0.0175567579
		 -0.01755494273
		 -0.01755312727
		 -0.01755131151
		 -0.01754949545
		 -0.01754767908
		 -0.01754586242
		 -0.01754404546
		 -0.0175422282
		 -0.01754041064
		 -0.01753859278
		 -0.01753677462
		 -0.01753495615
		 -0.01753313739
		 -0.01753131833
		 -0.01752949896
		 -0.01752767929
		 -0.01752585933
		 -0.01752403906
		 -0.01752221849
		 -0.01752039761
		 -0.01751857644
		 -0.01751675496
		 -0.01751493318
		 -0.0175131111
		 -0.01751128871
		 -0.01750946603
		 -0.01750764305
		 -0.01750581977
		 -0.0175039962
		 -0.01750217234
		 -0.01750034818
		 -0.01749852373
		 -0.01749669899
		 -0.01749487395
		 -0.01749304862
		 -0.01749122299
		 -0.01748939707
		 -0.01748757086
		 -0.01748574435
		 -0.01748391754
		 -0.01748209044
		 -0.01748026305
		 -0.01747843536
		 -0.01747660737
		 -0.01747477909
		 -0.01747295051
		 -0.01747112164
		 -0.01746929247
		 -0.01746746301
		 -0.01746563325
		 -0.01746380319
		 -0.01746197283
		 -0.01746014218
		 -0.01745831124
		 -0.01745647999
		 -0.01745464845
		 -0.01745281661
		 -0.01745098448
		 -0.01744915204
		 -0.01744731931
		 -0.01744548628
		 -0.01744365296
		 -0.01744181933
		 -0.01743998541
		 -0.01743815119
		 -0.01743631667
		 -0.01743448185
		 -0.01743264674
		 -0.01743081132
		 -0.01742897561
		 -0.01742713959
		 -0.01742530328
		 -0.01742346667
		 -0.01742162976
		 -0.01741979255
		 -0.01741795504
		 -0.01741611723
		 -0.01741427912
		 -0.01741244071
		 -0.017410602
		 -0.01740876299
		 -0.01740692368
		 -0.01740508406
		 -0.01740324415
		 -0.01740140394
		 -0.01739956342
		 -0.01739772261
		 -0.01739588149
		 -0.01739404007
		 -0.01739219835
		 -0.01739035633
		 -0.017388514
		 -0.01738667138
		 -0.01738482845
		 -0.01738298522
		 -0.01738114169
		 -0.01737929785
		 -0.01737745371
		 -0.01737560927
		 -0.01737376453
		 -0.01737191948
		 -0.01737007413
		 -0.01736822848
		 -0.01736638252
		 -0.01736453626
		 -0.0173626897
		 -0.01736084283
		 -0.01735899565
		 -0.01735714818
		 -0.0173553004
		 -0.01735345231
		 -0.01735160392
		 -0.01734975523
		 -0.01734790623
		 -0.01734605693
		 -0.01734420732
		 -0.0173423574
		 -0.01734050718
		 -0.01733865666
		 -0.01733680583
		 -0.01733495469
		 -0.01733310325
		 -0.0173312515
		 -0.01732939944
		 -0.01732754708
		 -0.01732569441
		 -0.01732384144
		 -0.01732198816
		 -0.01732013457
		 -0.01731828069
		 -0.01731642651
		 -0.01731457204
		 -0.01731271727
		 -0.0173108622
		 -0.01730900683
		 -0.01730715117
		 -0.0173052952
		 -0.01730343894
		 -0.01730158239
		 -0.01729972553
		 -0.01729786837
		 -0.01729601092
		 -0.01729415317
		 -0.01729229512
		 -0.01729043677
		 -0.01728857812
		 -0.01728671917
		 -0.01728485992
		 -0.01728300037
		 -0.01728114052
		 -0.01727928037
		 -0.01727741992
		 -0.01727555917
		 -0.01727369812
		 -0.01727183677
		 -0.01726997512
		 -0.01726811317
		 -0.01726625091
		 -0.01726438836
		 -0.0172625255
		 -0.01726066234
		 -0.01725879888
		 -0.01725693511
		 -0.01725507105
		 -0.01725320668
		 -0.01725134201
		 -0.01724947703
		 -0.01724761175
		 -0.01724574617
		 -0.01724388029
		 -0.0172420141
		 -0.01724014761
		 -0.01723828081
		 -0.01723641371
		 -0.01723454631
		 -0.0172326786
		 -0.01723081059
		 -0.01722894227
		 -0.01722707365
		 -0.01722520472
		 -0.01722333549
		 -0.01722146595
		 -0.01721959611
		 -0.01721772596
		 -0.0172158555
		 -0.01721398474
		 -0.01721211367
		 -0.0172102423
		 -0.01720837061
		 -0.01720649863
		 -0.01720462633
		 -0.01720275373
		 -0.01720088082
		 -0.0171990076
		 -0.01719713407
		 -0.01719526024
		 -0.0171933861
		 -0.01719151165
		 -0.01718963689
		 -0.01718776183
		 -0.01718588645
		 -0.01718401077
		 -0.01718213478
		 -0.01718025847
		 -0.01717838186
		 -0.01717650494
		 -0.01717462771
		 -0.01717275017
		 -0.01717087232
		 -0.01716899416
		 -0.01716711569
		 -0.01716523691
		 -0.01716335781
		 -0.01716147841
		 -0.01715959869
		 -0.01715771867
		 -0.01715583833
		 -0.01715395768
		 -0.01715207672
		 -0.01715019545
		 -0.01714831386
		 -0.01714643197
		 -0.01714454976
		 -0.01714266723
		 -0.0171407844
		 -0.01713890125
		 -0.01713701779
		 -0.01713513401
		 -0.01713324992
		 -0.01713136552
		 -0.01712948081
		 -0.01712759578
		 -0.01712571046
		 -0.01712382483
		 -0.01712193889
		 -0.01712005266
		 -0.01711816611
		 -0.01711627927
		 -0.01711439212
		 -0.01711250466
		 -0.0171106169
		 -0.01710872883
		 -0.01710684046
		 -0.01710495179
		 -0.01710306281
		 -0.01710117352
		 -0.01709928393
		 -0.01709739403
		 -0.01709550382
		 -0.01709361331
		 -0.0170917225
		 -0.01708983138
		 -0.01708793995
		 -0.01708604821
		 -0.01708415617
		 -0.01708226382
		 -0.01708037117
		 -0.01707847821
		 -0.01707658494
		 -0.01707469136
		 -0.01707279747
		 -0.01707090328
		 -0.01706900878
		 -0.01706711397
		 -0.01706521886
		 -0.01706332344
		 -0.0170614277
		 -0.01705953166
		 -0.01705763531
		 -0.01705573866
		 -0.01705384169
		 -0.01705194441
		 -0.01705004683
		 -0.01704814894
		 -0.01704625073
		 -0.01704435222
		 -0.0170424534
		 -0.01704055427
		 -0.01703865482
		 -0.01703675507
		 -0.01703485501
		 -0.01703295464
		 -0.01703105395
		 -0.01702915296
		 -0.01702725166
		 -0.01702535004
		 -0.01702344812
		 -0.01702154588
		 -0.01701964333
		 -0.01701774047
		 -0.0170158373
		 -0.01701393382
		 -0.01701203002
		 -0.01701012592
		 -0.0170082215
		 -0.01700631677
		 -0.01700441173
		 -0.01700250637
		 -0.0170006007
		 -0.01699869472
		 -0.01699678843
		 -0.01699488182
		 -0.0169929749
		 -0.01699106767
		 -0.01698916012
		 -0.01698725226
		 -0.01698534409
		 -0.0169834356
		 -0.0169815268
		 -0.01697961769
		 -0.01697770826
		 -0.01697579852
		 -0.01697388846
		 -0.01697197808
		 -0.0169700674
		 -0.0169681564
		 -0.01696624508
		 -0.01696433345
		 -0.0169624215
		 -0.01696050923
		 -0.01695859666
		 -0.01695668376
		 -0.01695477055
		 -0.01695285703
		 -0.01695094318
		 -0.01694902903
		 -0.01694711455
		 -0.01694519976
		 -0.01694328465
		 -0.01694136923
		 -0.01693945349
		 -0.01693753743
		 -0.01693562105
		 -0.01693370436
		 -0.01693178736
		 -0.01692987006
		 -0.01692795244
		 -0.01692603452
		 -0.01692411629
		 -0.01692219775
		 -0.0169202789
		 -0.01691835974
		 -0.01691644028
		 -0.0169145205
		 -0.01691260042
		 -0.01691068002
		 -0.01690875932
		 -0.01690683831
		 -0.01690491698
		 -0.01690299535
		 -0.01690107341
		 -0.01689915116
		 -0.01689722859
		 -0.01689530572
		 -0.01689338253
		 -0.01689145904
		 -0.01688953523
		 -0.01688761112
		 -0.01688568669
		 -0.01688376195
		 -0.01688183689
		 -0.01687991153
		 -0.01687798586
		 -0.01687605987
		 -0.01687413357
		 -0.01687220696
		 -0.01687028003
		 -0.01686835279
		 -0.01686642524
		 -0.01686449738
		 -0.0168625692
		 -0.01686064072
		 -0.01685871191
		 -0.0168567828
		 -0.01685485337
		 -0.01685292362
		 -0.01685099356
		 -0.01684906319
		 -0.01684713251
		 -0.0168452015
		 -0.01684327019
		 -0.01684133856
		 -0.01683940661
		 -0.01683747435
		 -0.01683554178
		 -0.01683360889
		 -0.01683167568
		 -0.01682974216
		 -0.01682780832
		 -0.01682587417
		 -0.0168239397
		 -0.01682200491
		 -0.01682006981
		 -0.01681813439
		 -0.01681619865
		 -0.0168142626
		 -0.01681232623
		 -0.01681038955
		 -0.01680845254
		 -0.01680651522
		 -0.01680457758
		 -0.01680263962
		 -0.01680070135
		 -0.01679876276
		 -0.01679682385
		 -0.01679488462
		 -0.01679294507
		 -0.0167910052
		 -0.01678906502
		 -0.01678712451
		 -0.01678518369
		 -0.01678324254
		 -0.01678130108
		 -0.0167793593
		 -0.0167774172
		 -0.01677547478
		 -0.01677353204
		 -0.01677158897
		 -0.01676964559
		 -0.01676770189
		 -0.01676575787
		 -0.01676381352
		 -0.01676186886
		 -0.01675992387
		 -0.01675797857
		 -0.01675603294
		 -0.01675408699
		 -0.01675214072
		 -0.01675019412
		 -0.01674824721
		 -0.01674629997
		 -0.01674435241
		 -0.01674240453
		 -0.01674045632
		 -0.0167385078
		 -0.01673655895
		 -0.01673460978
		 -0.0167326603
		 -0.01673071051
		 -0.0167287604
		 -0.01672680999
		 -0.01672485926
		 -0.01672290822
		 -0.01672095686
		 -0.01671900519
		 -0.01671705321
		 -0.01671510091
		 -0.0167131483
		 -0.01671119538
		 -0.01670924214
		 -0.01670728858
		 -0.01670533471
		 -0.01670338053
		 -0.01670142603
		 -0.01669947122
		 -0.01669751609
		 -0.01669556065
		 -0.01669360489
		 -0.01669164882
		 -0.01668969242
		 -0.01668773572
		 -0.01668577869
		 -0.01668382135
		 -0.0166818637
		 -0.01667990572
		 -0.01667794743
		 -0.01667598883
		 -0.0166740299
		 -0.01667207066
		 -0.0166701111
		 -0.01666815122
		 -0.01666619102
		 -0.01666423051
		 -0.01666226968
		 -0.01666030853
		 -0.01665834706
		 -0.01665638527
		 -0.01665442316
		 -0.01665246073
		 -0.01665049799
		 -0.01664853492
		 -0.01664657153
		 -0.01664460783
		 -0.0166426438
		 -0.01664067946
		 -0.01663871479
		 -0.0166367498
		 -0.0166347845
		 -0.01663281887
		 -0.01663085292
		 -0.01662888665
		 -0.01662692005
		 -0.01662495314
		 -0.0166229859
		 -0.01662101835
		 -0.01661905047
		 -0.01661708226
		 -0.01661511374
		 -0.01661314489
		 -0.01661117572
		 -0.01660920623
		 -0.01660723641
		 -0.01660526627
		 -0.01660329581
		 -0.01660132502
		 -0.01659935391
		 -0.01659738248
		 -0.01659541072
		 -0.01659343864
		 -0.01659146623
		 -0.0165894935
		 -0.01658752044
		 -0.01658554706
		 -0.01658357335
		 -0.01658159932
		 -0.01657962496
		 -0.01657765027
		 -0.01657567526
		 -0.01657369993
		 -0.01657172427
		 -0.01656974828
		 -0.01656777196
		 -0.01656579532
		 -0.01656381835
		 -0.01656184106
		 -0.01655986343
		 -0.01655788548
		 -0.0165559072
		 -0.0165539286
		 -0.01655194967
		 -0.0165499704
		 -0.01654799081
		 -0.01654601089
		 -0.01654403065
		 -0.01654205007
		 -0.01654006917
		 -0.01653808793
		 -0.01653610637
		 -0.01653412448
		 -0.01653214227
		 -0.01653015974
		 -0.01652817689
		 -0.01652619372
		 -0.01652421023
		 -0.01652222643
		 -0.0165202423
		 -0.01651825786
		 -0.01651627309
		 -0.01651428801
		 -0.0165123026
		 -0.01651031688
		 -0.01650833083
		 -0.01650634447
		 -0.01650435778
		 -0.01650237077
		 -0.01650038345
		 -0.0164983958
		 -0.01649640783
		 -0.01649441954
		 -0.01649243092
		 -0.01649044199
		 -0.01648845273
		 -0.01648646315
		 -0.01648447325
		 -0.01648248302
		 -0.01648049248
		 -0.01647850161
		 -0.01647651042
		 -0.0164745189
		 -0.01647252706
		 -0.0164705349
		 -0.01646854242
		 -0.01646654961
		 -0.01646455648
		 -0.01646256302
		 -0.01646056924
		 -0.01645857514
		 -0.01645658071
		 -0.01645458595
		 -0.01645259088
		 -0.01645059547
		 -0.01644859975
		 -0.01644660369
		 -0.01644460731
		 -0.01644261061
		 -0.01644061358
		 -0.01643861623
		 -0.01643661854
		 -0.01643462054
		 -0.0164326222
		 -0.01643062354
		 -0.01642862456
		 -0.01642662524
		 -0.0164246256
		 -0.01642262564
		 -0.01642062534
		 -0.01641862472
		 -0.01641662377
		 -0.0164146225
		 -0.01641262089
		 -0.01641061896
		 -0.0164086167
		 -0.01640661411
		 -0.01640461119
		 -0.01640260795
		 -0.01640060437
		 -0.01639860047
		 -0.01639659624
		 -0.01639459167
		 -0.01639258678
		 -0.01639058156
		 -0.01638857601
		 -0.01638657013
		 -0.01638456392
		 -0.01638255738
		 -0.01638055051
		 -0.01637854331
		 -0.01637653578
		 -0.01637452792
		 -0.01637251972
		 -0.0163705112
		 -0.01636850234
		 -0.01636649316
		 -0.01636448364
		 -0.01636247379
		 -0.01636046361
		 -0.01635845309
		 -0.01635644225
		 -0.01635443107
		 -0.01635241956
		 -0.01635040772
		 -0.01634839554
		 -0.01634638303
		 -0.01634437019
		 -0.01634235701
		 -0.0163403435
		 -0.01633832966
		 -0.01633631549
		 -0.01633430098
		 -0.01633228613
		 -0.01633027096
		 -0.01632825545
		 -0.01632623962
		 -0.01632422346
		 -0.01632220698
		 -0.01632019018
		 -0.01631817305
		 -0.0163161556
		 -0.01631413782
		 -0.01631211971
		 -0.01631010129
		 -0.01630808253
		 -0.01630606345
		 -0.01630404405
		 -0.01630202432
		 -0.01630000426
		 -0.01629798388
		 -0.01629596317
		 -0.01629394213
		 -0.01629192077
		 -0.01628989908
		 -0.01628787707
		 -0.01628585472
		 -0.01628383205
		 -0.01628180906
		 -0.01627978573
		 -0.01627776208
		 -0.0162757381
		 -0.01627371379
		 -0.01627168915
		 -0.01626966419
		 -0.0162676389
		 -0.01626561328
		 -0.01626358733
		 -0.01626156105
		 -0.01625953444
		 -0.0162575075
		 -0.01625548024
		 -0.01625345264
		 -0.01625142472
		 -0.01624939646
		 -0.01624736788
		 -0.01624533896
		 -0.01624330972
		 -0.01624128014
		 -0.01623925023
		 -0.01623722
		 -0.01623518943
		 -0.01623315853
		 -0.0162311273
		 -0.01622909574
		 -0.01622706385
		 -0.01622503163
		 -0.01622299907
		 -0.01622096618
		 -0.01621893296
		 -0.01621689941
		 -0.01621486553
		 -0.01621283131
		 -0.01621079677
		 -0.01620876188
		 -0.01620672667
		 -0.01620469112
		 -0.01620265524
		 -0.01620061903
		 -0.01619858248
		 -0.0161965456
		 -0.01619450838
		 -0.01619247083
		 -0.01619043295
		 -0.01618839473
		 -0.01618635618
		 -0.0161843173
		 -0.01618227807
		 -0.01618023852
		 -0.01617819863
		 -0.0161761584
		 -0.01617411784
		 -0.01617207694
		 -0.01617003571
		 -0.01616799414
		 -0.01616595224
		 -0.01616391
		 -0.01616186742
		 -0.01615982451
		 -0.01615778126
		 -0.01615573767
		 -0.01615369375
		 -0.01615164949
		 -0.01614960489
		 -0.01614755995
		 -0.01614551468
		 -0.01614346907
		 -0.01614142312
		 -0.01613937684
		 -0.01613733021
		 -0.01613528325
		 -0.01613323595
		 -0.01613118831
		 -0.01612914034
		 -0.01612709202
		 -0.01612504337
		 -0.01612299437
		 -0.01612094504
		 -0.01611889538
		 -0.01611684539
		 -0.01611479507
		 -0.01611274442
		 -0.01611069344
		 -0.01610864214
		 -0.01610659051
		 -0.01610453854
		 -0.01610248625
		 -0.01610043363
		 -0.01609838068
		 -0.01609632739
		 -0.01609427378
		 -0.01609221984
		 -0.01609016557
		 -0.01608811096
		 -0.01608605603
		 -0.01608400076
		 -0.01608194517
		 -0.01607988924
		 -0.01607783298
		 -0.01607577639
		 -0.01607371946
		 -0.01607166221
		 -0.01606960462
		 -0.0160675467
		 -0.01606548844
		 -0.01606342986
		 -0.01606137094
		 -0.01605931168
		 -0.0160572521
		 -0.01605519218
		 -0.01605313192
		 -0.01605107133
		 -0.01604901041
		 -0.01604694915
		 -0.01604488756
		 -0.01604282564
		 -0.01604076338
		 -0.01603870078
		 -0.01603663785
		 -0.01603457458
		 -0.01603251098
		 -0.01603044704
		 -0.01602838276
		 -0.01602631815
		 -0.01602425321
		 -0.01602218792
		 -0.0160201223
		 -0.01601805634
		 -0.01601599005
		 -0.01601392341
		 -0.01601185644
		 -0.01600978914
		 -0.01600772149
		 -0.01600565351
		 -0.01600358518
		 -0.01600151652
		 -0.01599944752
		 -0.01599737819
		 -0.01599530851
		 -0.01599323849
		 -0.01599116814
		 -0.01598909744
		 -0.01598702641
		 -0.01598495503
		 -0.01598288332
		 -0.01598081126
		 -0.01597873886
		 -0.01597666613
		 -0.01597459305
		 -0.01597251963
		 -0.01597044587
		 -0.01596837177
		 -0.01596629732
		 -0.01596422254
		 -0.01596214741
		 -0.01596007194
		 -0.01595799613
		 -0.01595591998
		 -0.01595384348
		 -0.01595176664
		 -0.01594968946
		 -0.01594761193
		 -0.01594553406
		 -0.01594345585
		 -0.01594137729
		 -0.01593929839
		 -0.01593721914
		 -0.01593513955
		 -0.01593305962
		 -0.01593097934
		 -0.01592889872
		 -0.01592681775
		 -0.01592473643
		 -0.01592265477
		 -0.01592057277
		 -0.01591849041
		 -0.01591640772
		 -0.01591432467
		 -0.01591224128
		 -0.01591015754
		 -0.01590807346
		 -0.01590598905
		 -0.0159039043
		 -0.01590181921
		 -0.01589973379
		 -0.01589764803
		 -0.01589556194
		 -0.01589347551
		 -0.01589138874
		 -0.01588930164
		 -0.0158872142
		 -0.01588512642
		 -0.01588303831
		 -0.01588094986
		 -0.01587886107
		 -0.01587677194
		 -0.01587468248
		 -0.01587259268
		 -0.01587050254
		 -0.01586841206
		 -0.01586632125
		 -0.01586423009
		 -0.0158621386
		 -0.01586004677
		 -0.0158579546
		 -0.01585586209
		 -0.01585376924
		 -0.01585167605
		 -0.01584958253
		 -0.01584748866
		 -0.01584539445
		 -0.01584329991
		 -0.01584120502
		 -0.01583910979
		 -0.01583701423
		 -0.01583491832
		 -0.01583282207
		 -0.01583072548
		 -0.01582862855
		 -0.01582653128
		 -0.01582443366
		 -0.01582233571
		 -0.01582023741
		 -0.01581813877
		 -0.01581603979
		 -0.01581394047
		 -0.0158118408
		 -0.01580974079
		 -0.01580764044
		 -0.01580553975
		 -0.01580343871
		 -0.01580133733
		 -0.01579923561
		 -0.01579713355
		 -0.01579503114
		 -0.01579292838
		 -0.01579082529
		 -0.01578872184
		 -0.01578661806
		 -0.01578451393
		 -0.01578240945
		 -0.01578030463
		 -0.01577819947
		 -0.01577609396
		 -0.01577398811
		 -0.01577188191
		 -0.01576977536
		 -0.01576766847
		 -0.01576556123
		 -0.01576345365
		 -0.01576134572
		 -0.01575923745
		 -0.01575712883
		 -0.01575501986
		 -0.01575291055
		 -0.01575080088
		 -0.01574869088
		 -0.01574658052
		 -0.01574446982
		 -0.01574235877
		 -0.01574024737
		 -0.01573813562
		 -0.01573602353
		 -0.01573391109
		 -0.0157317983
		 -0.01572968516
		 -0.01572757167
		 -0.01572545783
		 -0.01572334365
		 -0.01572122911
		 -0.01571911423
		 -0.015716999
		 -0.01571488341
		 -0.01571276748
		 -0.0157106512
		 -0.01570853457
		 -0.01570641759
		 -0.01570430025
		 -0.01570218257
		 -0.01570006454
		 -0.01569794615
		 -0.01569582742
		 -0.01569370833
		 -0.0156915889
		 -0.01568946913
		 -0.01568734902
		 -0.01568522857
		 -0.01568310777
		 -0.01568098664
		 -0.01567886516
		 -0.01567674335
		 -0.01567462119
		 -0.01567249869
		 -0.01567037584
		 -0.01566825266
		 -0.01566612913
		 -0.01566400526
		 -0.01566188105
		 -0.01565975649
		 -0.01565763159
		 -0.01565550635
		 -0.01565338077
		 -0.01565125484
		 -0.01564912857
		 -0.01564700195
		 -0.01564487499
		 -0.01564274769
		 -0.01564062004
		 -0.01563849204
		 -0.01563636371
		 -0.01563423502
		 -0.015632106
		 -0.01562997662
		 -0.0156278469
		 -0.01562571684
		 -0.01562358643
		 -0.01562145568
		 -0.01561932458
		 -0.01561719313
		 -0.01561506134
		 -0.0156129292
		 -0.01561079671
		 -0.01560866388
		 -0.0156065307
		 -0.01560439718
		 -0.0156022633
		 -0.01560012908
		 -0.01559799451
		 -0.0155958596
		 -0.01559372433
		 -0.01559158872
		 -0.01558945276
		 -0.01558731645
		 -0.0155851798
		 -0.01558304279
		 -0.01558090544
		 -0.01557876774
		 -0.01557662969
		 -0.01557449128
		 -0.01557235253
		 -0.01557021343
		 -0.01556807398
		 -0.01556593418
		 -0.01556379403
		 -0.01556165354
		 -0.01555951269
		 -0.01555737148
		 -0.01555522993
		 -0.01555308803
		 -0.01555094578
		 -0.01554880317
		 -0.01554666022
		 -0.01554451691
		 -0.01554237325
		 -0.01554022924
		 -0.01553808488
		 -0.01553594017
		 -0.0155337951
		 -0.01553164968
		 -0.01552950391
		 -0.01552735778
		 -0.01552521131
		 -0.01552306448
		 -0.01552091729
		 -0.01551876976
		 -0.01551662187
		 -0.01551447362
		 -0.01551232502
		 -0.01551017607
		 -0.01550802677
		 -0.0155058771
		 -0.01550372709
		 -0.01550157672
		 -0.015499426
		 -0.01549727492
		 -0.01549512348
		 -0.01549297169
		 -0.01549081955
		 -0.01548866705
		 -0.01548651419
		 -0.01548436098
		 -0.01548220741
		 -0.01548005348
		 -0.0154778992
		 -0.01547574456
		 -0.01547358957
		 -0.01547143424
		 -0.01546927856
		 -0.01546712253
